F[ERK1
CUT[ES KANN JA NICHT IMMER SO BLEIBEN]
REG[Europa, Mitteleuropa, Deutschland, Hessen, Darmstadt]
KEY[E0353D 08  F 4/4]
MEL[12  3_333543  522_0_
    23  4_446_54  5__0_
    1_  6_66+1_76  655_0_
    5+1  7_777_67  +1__0_
    1_  6_66+1_76  655_0_
    5+1  7_777_67  +1__0_ //] >>
FCT[historisches Lied, Krieg, Soldaten (1813 und 1870)]
